img/svg/plane-rev.svg

<?xml version="1.0" encoding="utf-8"?><!DOCTYPE svg PUBLIC "-//W3C//DTD SVG 1.1//EN" "http://www.w3.org/Graphics/SVG/1.1/DTD/svg11.dtd"><svg version="1.1" baseProfile="full" xmlns="http://www.w3.org/2000/svg" xmlns:xlink="http://www.w3.org/1999/xlink" xmlns:ev="http://www.w3.org/2001/xml-events"   height="23px"   width="30px" ><path fill="rgb( 48, 171, 223 )" d="M25.7190000000001,12.963 C25.6469999999999,12.974 25.5719999999999,12.979 25.4960000000001,12.979 C25.4960000000001,12.979 18.069,12.979 18.069,12.979 C18.069,12.979 15.7339999999999,12.979 15.7339999999999,12.979 C15.7339999999999,12.979 19.261,23 19.261,23 C19.261,23 16.48,22.766 16.48,22.766 C16.48,22.766 14.348,19.801 14.348,19.801 C14.348,19.801 12.222,16.842 12.222,16.842 C12.222,16.842 9.44499999999994,12.979 9.44499999999994,12.979 C9.44499999999994,12.979 5.97399999999993,12.979 5.97399999999993,12.979 C5.97399999999993,12.979 1.73199999999997,12.979 1.73199999999997,12.979 C0.77500000000009,12.979 0,12.1369999999999 0,11.096 C0,10.056 0.77500000000009,9.21400000000006 1.73199999999997,9.21400000000006 C1.73199999999997,9.21400000000006 5.97399999999993,9.21400000000006 5.97399999999993,9.21400000000006 C5.97399999999993,9.21400000000006 9.77999999999997,9.21400000000006 9.77999999999997,9.21400000000006 C9.77999999999997,9.21400000000006 12.2260000000001,5.93299999999999 12.2260000000001,5.93299999999999 C12.2260000000001,5.93299999999999 14.4400000000001,2.96500000000003 14.4400000000001,2.96500000000003 C14.4400000000001,2.96500000000003 16.4780000000001,0.23299999999995 16.4780000000001,0.23299999999995 C16.4780000000001,0.23299999999995 19.615,0 19.615,0 C19.615,0 15.9680000000001,9.21500000000003 15.9680000000001,9.21500000000003 C15.9680000000001,9.21500000000003 18.069,9.21500000000003 18.069,9.21500000000003 C18.069,9.21500000000003 25.4960000000001,9.21500000000003 25.4960000000001,9.21500000000003 C25.5650000000001,9.21500000000003 25.6320000000001,9.21799999999996 25.6949999999999,9.22699999999998 C25.6949999999999,9.22699999999998 28.1079999999999,5.92399999999998 28.1079999999999,5.92399999999998 C28.1079999999999,5.92399999999998 30,5.92399999999998 30,5.92399999999998 C30,5.92399999999998 28.4490000000001,10.146 28.4490000000001,10.146 C28.4490000000001,10.146 28.4490000000001,10.439 28.4490000000001,10.439 C28.4490000000001,10.439 28.4490000000001,11.41 28.4490000000001,11.41 C28.4490000000001,11.41 28.4490000000001,12.259 28.4490000000001,12.259 C28.4490000000001,12.259 29.9000000000001,16.578 29.9000000000001,16.578 C29.9000000000001,16.578 28.2470000000001,16.578 28.2470000000001,16.578 C28.2470000000001,16.578 25.7190000000001,12.963 25.7190000000001,12.963 Z "/></svg>

<svg baseProfile="full" xmlns="http://www.w3.org/2000/svg" height="23" width="30"><path fill="rgb( 48, 171, 223 )" d="M25.719 12.963l-.223.016h-9.762l3.527 10.021-2.781-.234-2.132-2.965-2.126-2.959-2.777-3.863h-7.713c-.957 0-1.732-.842-1.732-1.883 0-1.04.775-1.882 1.732-1.882h8.048l2.446-3.281 2.214-2.968 2.038-2.732 3.137-.233-3.647 9.215h9.527999999999999l.199.012 2.413-3.303h1.892l-1.551 4.222v2.113l1.451 4.319h-1.653l-2.528-3.615z"/></svg>
